tools/panel_16/notes.svg

<svg xmlns="http://www.w3.org/2000/svg" width="16" height="16" version="1.1">
 <defs>
  <style id="current-color-scheme" type="text/css">
   .ColorScheme-Text { color:#d3dae3; } .ColorScheme-Highlight { color:#5294e2; }
  </style>
 </defs>
 <g>
  <path style="fill:currentColor" class="ColorScheme-Text" d="M 15.189453,1.1601562 C 15.119453,1.2001563 15.05,1.2503125 15,1.3203125 l -0.5,0.5 -0.150391,-0.1601563 -0.904297,0.9042969 -3.6152339,3.6152344 0,0.00195 -0.4492187,0.4492188 0.1484375,0.1582031 -0.5,0.5 L 9,8 l 0.7207031,-0.029297 0.4999999,-0.5 0.160156,0.1601563 L 10.683594,7.3261719 14.195312,3.8144531 15.349609,2.6601562 15.189453,2.5 l 0.5,-0.5 C 15.979453,1.71 15.67,1.0901563 15.25,1.1601562 Z M 3,2 C 2.45,2 2,2.45 2,3 l 0,9 c 0,0.55 0.45,1 1,1 l 11,0 c 0.55,0 1,-0.45 1,-1 L 15,4.4394531 11.089844,8.3398438 10.380859,9.0292969 10.220703,8.8691406 10.160156,8.9394531 9.75,8.9707031 9.0292969,9 7.9707031,9.0292969 8,7.9707031 8.0292969,7.25 8.0605469,6.8398438 8.1191406,6.7792969 7.9707031,6.6191406 8.6601562,5.9101562 12.560547,2 Z m -1,11 0,1 c 0,0.55 0.45,1 1,1 l 11,0 c 0.55,0 1,-0.45 1,-1 l 0,-1 c 0,0.55 -0.45,1 -1,1 L 3,14 C 2.45,14 2,13.55 2,13 Z"/>
 </g>
</svg>

<svg xmlns="http://www.w3.org/2000/svg" width="16" height="16" version="1.1">
 <defs>
  <style id="current-color-scheme" type="text/css">
   .ColorScheme-Text { color:#d3dae3; } .ColorScheme-Highlight { color:#5294e2; }
  </style>
 </defs>
 <path style="fill:currentColor" class="ColorScheme-Text" d="M 15.189,1.1602 C 15.119,1.2002 15.05,1.2503 15,1.3203 L 14.5,1.8203 14.35,1.6602 13.445,2.5645 9.8301,6.1797 V 6.1816 L 9.3809,6.6309 9.5293,6.7891 9.0293,7.2891 9,8 9.7207,7.9707 10.221,7.4707 10.381,7.6309 10.684,7.3262 14.195,3.8145 15.35,2.6602 15.189,2.5 15.689,2 C 15.979,1.71 15.67,1.0902 15.25,1.1602 Z M 3,2 C 2.45,2 2,2.45 2,3 V 12 C 2,12.55 2.45,13 3,13 H 14 C 14.55,13 15,12.55 15,12 V 4.4395 L 11.09,8.3398 10.381,9.0293 10.221,8.8691 10.16,8.9395 9.75,8.9707 9.0293,9 7.9707,9.0293 8,7.9707 8.0293,7.25 8.0605,6.8398 8.1191,6.7793 7.9707,6.6191 8.6602,5.9102 12.561,2 Z M 2,13 V 14 C 2,14.55 2.45,15 3,15 H 14 C 14.55,15 15,14.55 15,14 V 13 C 15,13.55 14.55,14 14,14 H 3 C 2.45,14 2,13.55 2,13 Z"/>
</svg>
